X:1
T: Fight about the Fireside
C:
R:Reel
Q: 232
K:C
M:4/4
L:1/8
|:c|Gc Ec Dd dc|Gc Ec Gc Ec|Fc Ec Dd dB|cG AF EC Cc|
Gc Ec Dd dc|Gc Ec Gc Ec|Fc Ec Dd dB|cG AF EC Cf|
ec gc ed df|ec gc ac gc|fa ge dc de|GA cd e2 df|
ec gc ed df|ec gc ac gc|fa ge dc de|GA cd e2 c:|
